X: 23077
T: Laughing Minstrel
R: hornpipe
M: 4/4
K: Edorian
(3A,B,C|DCDE =FEFA|^A=A^Ad cdeg|
fdge afed|cedB A2 AG|FG (3AGF GA BA|
^GB ed cbag|(3fga fdBgec|d2dc d4||

